#local_samples 
{
	"local/Shaker.brr"
        "local/Pan Flute.brr"
        "local/Overworld.brr"
}

#instruments 
{
	#default 
	
	"local/Shaker.brr"	$FF $E0 $00 $07 $A8    		
	"local/Pan Flute.brr"	$FF $E0 $00 $04 $01		
	"local/Overworld.brr"	$FF $E0 $00 $07 $03	   	
	
	$13			$8E $00 $00 $04 $FE		
}

#0 w240 t71 ~x /
	@25 v184 y10 h0 o4

	(flute_1)[
		q79 g16r32 q73 g32 q79 g24r24r96 q73 g32> q79 d16r32 q73 d32< q79 g24r24r96 q73 g32> q79 c16r32 q73 c32< q79 b24^96r24 q73 b32> q79 c16r32 q73 c32 q79 d16r32 q73 d32
		^16r16< q79 g24r24r96 q73 g32> q79 d16r32 q73 d32< q79 g24r24r96 q73 g32> q79 c16r32 q73 c32< q79 b24^96r24 q73 b32> q79 c16r32 q73 c32 q79 d16r32 q73 d32
		< q79 g16r32 q73 g32 q79 g24r24r96 q73 g32> q79 d16r32 q73 d32< q79 g24r24r96 q73 g32> q79 c16r32 q73 c32< q79 b24^96r24 q73 b32> q79 c16r32 q73 c32 q79 d16r32 q73 d32
		^16r16
	] < q79 g24r24r96 q73 g32 q79 a16r32 q73 a32 q79 b24r24r96 q73 b32> q79 c16r32 q73 c32< q79 b24r24r96 q73 b32 q79 g16r32 q73 g32 q79 a24r24r96 q73 a32
	
	(flute_1) > q79 e24r24r96 q73 e32 q79 c16r32 q73 c32< q79 a24r24r96 q73 a32> q79 d8 q73 d8< q79 d16r32 q73 d32r8
	
	@26 v255 y11 h0 o3
	
	(thing_1)[
		q7A b4g32.r16r64>d4<g32r16.>d16r16g8
		^1
		d8e16r16d32.r16r64c16.r8r32<a8r16. q76 a+32 q7A b8
		^4g16r16 q77 g32r16. q7A g32.r16r64a4r8
		
		b4g32.r16r64>d4<g32r16.>d16r16g8
		^1
		<b8g16r16g32.r16r64g16.r8r32e8g32.r32. q76 a+32> q7A c8
		^8 q7A c32r16.< q7A b16.r32 q7A g32r16. q7A g16^64r32.a4
	] r8
	
	(thing_1) g8
	
	(thing_2)[
		^2r8e8g32.r32. q76 a+32> q7A c8
		^8 q7A c32r16.< q7A b16.r32 q7A g32r16. q7A g16^64r32.a4b8
		^2
	] r8e8g32.r32. q76 a+32> q7A c8
	^8 q7A c32r16.< q7A b16.r32 q7A g32r16. q7A g16^64r32.a4g8
	
	(thing_2) r8b8>c32.r32. q76 c+32 q7A d8
	r8d8r8e16.r32 q7A d8 q78 c32.r16r64< q79 b32.r16r64> q7A c32.r16r64
	
	q7A d8 @27 v180 y8 h0 q77 d24^96r16r96 @26 v255 y11 h0 q7A d8e32.r16r64<g16.r8r32g8e16r16
	d8g16r16a16r16b32.r16 q7A b64>c8<b48r12r48> q77 c32r16. q7A d8
	^2^8 q73 d8r4
	@25 v184 y10 h0 o4 q78 f+8e16r32 q72 e32 q78 f+16r32 q72 f+32 q78 d4. q72 d8 @26 v255 y11 h0 o4 q78 c16 q79 c+16
	
	q7A d8 @27 v180 y8 h0 q77 c24^96r16r96 @26 v255 y11 h0 q7A d8e32.r16r64<g16.r8r32g8e16r16
	d8g16r16a16r16a+32.r32. q77 a+32 q7A b8a16r16 q77 g32r16. q7A g8
	^2.r4
	
#1 / @4 v224 y10 h0 o1

	[
		q7F g12^32r96g24^96r16r96g48r12r48g12r24b12^32r96b24^96r16r96b48r12r48>c12r24
		c48r12r48c24^96r16r96c48r12r48c12r24d6^24r24d12r24d48r12r48
	]4
	
	(bass_1)[
		<g12^32r96g24^96r16r96g48r12r48b12^32r8r96b12r24b48r12r48>c12r24
		c48r12r48c24^96r16r96c48r12r48c12r24d6^24r24d12r24d48r12r48
	] (bass_2)[
		c12^32r96c24^96r16r96c48r12r48<b12^32r8r96b12r24b48r12r48a12r24
		a48r12r48a24^96r16r96a48r12r48a12r24>d6^24r24d12r24d48r12r48
	]
	
	(bass_1)
	c12^32r96c24^96r16r96c48r12r48<b12^32r8r96b12r24b48r12r48>d12r24
	d48r12r48d24^96r16r96d48r12r48d12r24<a6^24r24a12r24a48r12r48
	
	(bass_1)
	(bass_2)
	
	e12^32r96e24^96r16r96e48r12r48b12^32r8r96b12r24b48r12r48>e12r24
	e48r12r48e24^96r16r96e48r12r48e12r24d6^24r24d12r24d48r12r48
	c12^32r96c24^96r16r96c48r12r48<b12^32r8r96b12r24b48r12r48>d12r24
	d48r12r48d24^96r16r96d48r12r48d12r24<a6^24r24a12r24
	(bass_3)[
		g8
	
		^16.^48r96g24^96r16r96g48r12r48g12r24b12^32r96b24^96r16r96b48r12r48>c12r24
		c48r12r48c24^96r16r96c48r12r48c12r24d6^24r24d12r24
	] e8
	^16.^48r96e24^96r16r96e48r12r48e12r24<b12^32r96b24^96r16r96b48r12r48>c12r24
	c48r12r48c24^96r16r96c48r12r48c12r24d6^24r24d12r24 (bass_3) c8
	^16.^48r96c24^96r16r96c48r12r48c12r24<b12^32r96b24^96r16r96b48r12r48a12^32r8r96
	a12r6a24^96r16r96>d6^24r24d12r24d48r12r48
	
	< q7F g8>g32r16.<g16r16>c32r16.d16.r8r32d32r16.d16.r32
	c8a32r16.c16r16d32.r16r64e16.r32<a32.r16r64>c16.r32g8..
	r32<b32r16.b16r16>c32r16.d16.r32< q7A b32r16. q77 b32r16.> q7F d16r16
	f+8 q7A f+32r16.< q7F g16r16b32r16.>d16.r8 q7A a+32 q7F b8f+16r16
	
	c8g32r16.<g16r16>c32r16.c+16.r8r32c+32r16.c+16.r32
	<a8>a32r16.c16r16c+32.r16r64d16.r32<f+32.r16r64>d16.r32<g8
	^2.r4
	
#2 / @2 v255 y9 h-2 o6

	(bongo_1)[
		q7F c32r16.<<< q79 a+16.r32f16.r32>>> q7F c32r16.<< q79 f16.r32<a+16.r32>>> q7F c32r16.<<< q79 f16.r32
		>f16.r32<a+16.r32>>> q7F c32r16.<<< q79 a+16.r32>>> q7F c32r16.<<< q79 a+16.r32>>> q7F c32r16.<<< q79 f16.r32
	]4
	
	(bongo_2)[
		>>> q7F c32r16.<<< q79 a+16.r32f16.r32>>> q7F c32r16.<< q79 f16.r32<a+16.r32>>> q7F c32r16.<<< q79 f16.r32
		>f16.r32<a+16.r32>>> q7F c32r16.<<< q79 a+16.r32>>> q7F c32r16.<<< q79 a+16.r32>>> q7F c32r16.<<< q79 f16.r32
	]8
	
	[ >>> r4c32r3r96c32r8..c32r16. ]3
	r4c32r3r96c32r8.. @25 v184 y10 h0 o5 q75 g16r32 q71 g32
	
	[ ^32r16. q75 g16r32 q71 g16r16. q75 d16r32 q71 d32 q75 g16r32 q71 g32 q75 d16r32 q71 d32 q75 d32r16 q71 d32 q75 g16r32 q71 g32 ]3
	^32r16. q75 g16r32 q71 g16r16. q75 d16r32 q71 d32 q75 f+8 q71 f+8r4
	
	@3 v152 y8 h0 ~p o6
	
	(triangle_1)[
		q78 d+16..r64 q77 d+32r16. @2 v255 y9 h-2 q7F c32r16. @3 v152 y8 h0 ~p q77 d+32r16. q78 d+16..r64 @2 v255 y9 h-2 q7F c32r16. @3 v152 y8 h0 ~p q74 d+32r16. q77 d+32r16.
		q73 d+32r16. q77 d+32r16. @2 v255 y9 h-2 q7F c32r16. @3 v152 y8 h0 ~p q77 d+32r16. q78 d+16..r64 q77 d+32r32d+32r32 q74 d+32r16. q78 d+8...
		r64 q77 d+32r32d+32r32 @2 v255 y9 h-2 q7F c32r16. @3 v152 y8 h0 ~p q77 d+32r16. q78 d+16..r64 @2 v255 y9 h-2 q7F c32r16. @3 v152 y8 h0 ~p q74 d+32r16. q77 d+32r16.
	]
	q73 d+32r16. q77 d+32r16. @2 v255 y9 h-2 q7F c32r16. @3 v152 y8 h0 ~p q77 d+32r16. q78 d+16..r64 q77 d+32r32d+32r32 q74 d+32r16. q77 d+32r16.
	
	(triangle_1)
	
#3 / @27 v180 y8 h0 o4

	[
		q77 g12^32r4r96g12^32r4.r96g12^32r8r96
		g12^32r8r96g12^32r2r96
	]4
	
	@3 v152 y8 h0 ~p o6
	
	[
		q78 d+16..r64 q76 d+32r16.d+32r16. q78 d+8...r64 q76 d+32r32d+32r32d+32r16. q78 d+8...
		r64 q76 d+32r16. q77 d+32r16. q76 d+32r16. q78 d+16..r64 q76 d+32r16. q77 d+32r16. q76 d+32r16.
	]7
	
	q78 d+16..r64 q76 d+32r16.d+32r16. q78 d+8...r64 q76 d+32r32d+32r32d+32r16. q78 d+8...
	r64 q76 d+32r16. q77 d+32r16. q76 d+32r16. q78 d+16..r64 q76 d+32r16. q77 d+32r16. @10 v192 y7 h0 o4 q77 d8
	
	^16.^48r4r96d12^32r8r96d12^32r8r96e16.r32
	r8e12^32r8r96e12^32r96e8..^48r96e12^32r96e8
	^16.^48r4r96e12^32r8r96e12^32r8r96e16.r32
	r8e12^32r8r96e12^32r96e8..^48r96e12^32r96 @25 v184 y10 h0 o4 q75 g16r32 q72 g16
	[ r16. q75 g16r32 q72 g16r16. q75 d16r32 q72 d32 q75 g16r32 q72 g32 q75 d16r32 q72 d32 q75 d32r16 q72 d32 q75 g16r32 q72 g16 ]3
	r16. q75 g16r32 q72 g16r16. q75 d16r32 q72 d32 @10 v192 y7 h0 o4 q78 f+4...^48r96
	
	q7D g8 q73 g16r4r16 q7D d16. q73 d16r3r96
	q7D c16. q73 c32 q79 c32r32 q72 c32r32 q7C c16 q73 c16 q79 c32r32 q72 c32r32 q7D d16. q73 d16r8.. q7D g8
	q73 g16r4.. q7D d16. q73 d16r3r96
	q7D d16. q73 d32 q79 d32r32 q72 d32r32 q7C d16 q73 d16 q79 d32r32 q72 d32r32< q7D b16. q73 b16r3r96
	
	> q7D e8 q73 e16r4r16 q7D c+16. q73 c+16r8.. q79 c+32r32c+32r32
	q7A d8 q78 d16r16d16 q72 d16 q75 d32r32 q72 d32r32 q7A d16. q72 d16r16. q7A d32.r64 q73 d32.r64< q7A g8
	^2.r4
	
#4 / @27 v180 y8 h0 o4

	[
		q77 d12^32r4r96d12^32r96d12r6d16^192r24r64d12^32r8r96
		d12^32r8r96d12^32r96d12^32r8r96d12r6
		d12^32r4r96d12^32r96d12r6d16^192r24r64e12^32r8r96
		e12^32r8r96e12^32r96d12^32r8r96d12r6
	]2
	
	(guitar_1)[
		g12^32r4r96d12^32r4r96d16^192r24r64g12^32r8r96
		g12^32r8r96g12^32r96d12^32r8r96d12r6
	]
	g12^32r4r96d12^32r4r96d16^192r24r64e12^32r8r96
	e12^32r8r96e12^32r96d12^32r8r96d12r6
	
	(guitar_1)
	c12^32r96c48r12r48c24^96r16r96c12^32r4r96c16^192r24r64d12^32r8r96
	d12^32r8r96d12^32r96d12^32r8r96d12r6
	
	(guitar_trumpet_1)[ @27 v180 y8 h0 q77 g12^32r8r96 @10 v192 y7 h0 q7A g16.r32 @27 v180 y8 h0 q77 d12^32r4r96 @10 v192 y7 h0 q7A d16.r32 ]
	(guitar_trumpet_2)[ g16.r32 g32r16.g8..r32 @27 v180 y8 h0 q77 g12^32r96d12^32r8r96 @10 v192 y7 h0 q7A d16.r8r32 ]
	(guitar_trumpet_1) e16.r32
	e32r16.e8..r32 @27 v180 y8 h0 q77 e12^32r96d12^32r8r96 @10 v192 y7 h0 q7A d16.r8r32
	
	@27 v180 y8 h0 q77 e12^32r8r96 @10 v192 y7 h0 q7A e16.r32< @27 v180 y8 h0 q77 b12^32r4r96 @10 v192 y7 h0 q7A g16.r32>
	(guitar_trumpet_2)
	@27 v180 y8 h0 q77 c12^32r8r96 @10 v192 y7 h0 q7A e16.r32 @27 v180 y8 h0 q77 c12^32r4r96 @10 v192 y7 h0 q7A c16.r32d16.r8r32
	d8..r32 @27 v180 y8 h0 q77 d12^32r96d12^32r8r96 @10 v192 y7 h0 q7A d16.r32< q77 b8
	
	^16.^48r4r96b12^32r8r96b12^32r8r96>c12^64r16..r24
	c12^32r8r96c12^32r96c8..^48r96c12^32r96d8..^48
	r4r96d12^32r8r96d12^32r8r96c12^64r16..r24
	c12^32r8r96c12^32r96c8..^48r96c12^32r96d8
	
	^16.^48r4r96d12^32r8r96d12^32r8r96e12^64r16..r24
	e12^32r8r96e12^32r96e8..^48r96e12^32r96g8..^48
	r4r96g12^32r8r96g12^32r8r96 q79 g12^32r8r96
	g12^32r8r96g12^32r96 q78 d4...^48r96
	
	q7D d8 q73 d16r4r16< q7D b16. q73 b16r8.. q79 b32r32b32r32
	q7D g16. q73 g32 q79 g32r32 q72 g32r32 q7C g16 q73 g16 q79 g32r32 q72 g32r32> q7D c16. q73 c16r8.. q7D d8
	q73 d16r4..< q7D b16. q73 b16r8..> q79 d32r32d32r32
	< q7D b16. q73 b32 q79 b32r32 q72 b32r32 q7C b16 q73 b16 q79 b32r32 q72 b32r32 q7D f+16. q73 f+16r3r96
	
	> q7D c8 q73 c16r4r16< q7D a16. q73 a16r8.. q79 a32r32a32r32
	q7A a8 q78 a16r16a16 q72 a16 q75 a32r32 q72 a32r32 q7A a16. q72 a16r16. q7A a32.r64 q73 a32.r64 q7A d8
	^2.r4
	
#5 / @25 v184 y10 h0 o3

	(flute_2)[
		q79 b16r32 q73 b32 q79 b24r24r96 q73 b32> q79 g16r32 q73 g32r8 q79 e16r32 q73 e32 q79 d24r24r96 q73 d32 q79 e16r32 q73 e32 q79 d16r32 q73 d32
		r8< q79 b24r24r96 q73 b32> q79 g16r32 q73 g32r8 q79 e16r32 q73 e32 q79 d24r24r96 q73 d32 q79 e16r32 q73 e32 q79 d16r32 q73 d32
		< q79 b16r32 q73 b32 q79 b24r24r96 q73 b32> q79 g16r32 q73 g32r8 q79 e16r32 q73 e32 q79 d24r24r96 q73 d32 q79 e16r32 q73 e32 q79 d16r32 q73 d32
	] r8 q79 d24r24r96 q73 d32 q79 e16r32 q73 e32 q79 g24r24r96 q73 g32 q79 e16r32 q73 e32 q79 d24r24r96 q73 d32 q79 c16r32 q73 c32 q79 d24r24r96 q73 d32
	
	(flute_2)
	r8 q79 g24r24r96 q73 g32 q79 e16r32 q73 e32 q79 c24r24r96 q73 c32 q79 a8r4.
	
	@16 v208 y8 h0 p24,10,72 o4
	
	(recorder_1)[
		r32 q7A b4g32.r16r64>d4<g32.r16r64>d16r16f+8
		&0,24,55 ^1
		d8e16r16d16r16c16..r8r64<a8r8a8
		&0,24,47 ^4g16r8.g32.r16r64a4r8
		
		b4g32.r16r64>d4<g32.r16r64>d16r16f+8
		&0,24,55 ^1
		<b8g16r16g32.r16r64g16.r8r32e8g32.r32. q76 a+32 q7A a+8
		&0,24,48 ^8 q7A > c32r16.< q7A b16.r8r32g16^64r32.a8..
	] ^32r16.
	
	(recorder_1) @3 v152 y8 h0 ~p 
	
	(vibes_1)[
		q7F g8
	
		^2 q72 g16.r32 q7F e8g32. q72 e32. q74 g32> q7F c8
		^8 q73 c16.r32< q7F b16. q74 b16.r16 q7F g16^64 q74 g32. q7F a4b8
		^2 q71 b16.r32
	] q7F e8g32. q74 e32. q74 g32> q7F c8
	^8 q73 c16.r32< q7F b16. q74 b32 q74 g64b32r32.g32 q7F g16^64 q74 g32. q7F a4
	
	(vibes_1) q7F b8>c32.< q71 b32.> q77 c32 q7F d8
	q72 d16.r32 q7F d8 q72 d16.r32 q7F e16. q72 e32 q7F d4 q71 d16.r8r32
	
	@27 v180 y8 h0
	
	q7A d8< q77 g24^96r16r96> q7A d8e32.r16r64<g16.r8r32g8e16r16
	d8g16r16a16r16b32.r16 q7A b64> q77 c8<b48r12r48> q77 c48^64r12r192 q78 d8
	^2^8 @25 v184 y10 h0 o4 g16r32 q72 g32 q78 b16r32 q72 b32> q78 d16r32 q72 d32
	q78 c8<b16r32 q72 b32> q78 c16r32 q72 c32 q78 d4. q72 d8r8
	@27 v180 y8 h0 o5 q7A d8< q77 e24^96r16r96> q7A d8e32.r16r64<g16.r8r32g8e16r16
	d8g16r16a16r16 q78 a+24r24a+24 q7A b8a16r16 q77 g32r16. q7A g2..
	r4
	
#6 / @27 v180 y8 h0 o3

	[
		q77 b12^32r4r96b12^32r96b12r24b48^64r12r192b16^192r24r64>c12^32r8r96
		c12^32r8r96c12^32r96<b12^32r96b48^64r12r192b12r24b48r12r48
		b12^32r4r96b12^32r96b12r24b48^64r12r192b16^192r24r64>c12^32r8r96
		c12^32r8r96c12^32r96<a12^32r96a48^64r12r192a12r24a48r12r48
	]2
	
	(guitar_2)[
		>d12^32r4r96<b12^32r8r96b48^64r12r192b16^192r24r64>c12^32r8r96
		c12^32r8r96c12^32r96<b12^32r96b48^64r12r192b12r24b48r12r48
	]
	>d12^32r4r96<b12^32r8r96b48^64r12r192b16^192r24r64>c12^32r8r96
	c12^32r8r96c12^32r96<a12^32r96a48^64r12r192a12r24a48r12r48
	
	(guitar_2)
	g12^32r96g48r12r48g24^96r16r96g12^32r8r96g48^64r12r192g16^192r24r64a12^32r8r96
	a12^32r8r96a12^32r96a12^32r96a48^64r12r192a12r24a48r12r48
	
	(guitar_trumpet_3)[
		@27 v180 y8 h0 q77 >d12^32r8r96 @10 v192 y7 h0 q7A d16.r32 @27 v180 y8 h0 < q77 b12^32r8r96b48^64r12r192 @10 v192 y7 h0 q7A b16.r32>c16.r32
		c32r16.c8..r32 @27 v180 y8 h0 q77 c12^32r96
	] <b12^32r96b48^64r12r192 @10 v192 y7 h0 q7A b16.r8r32
	(guitar_trumpet_3) a12^32r96a48^64r12r192 q7A a16.r8r32
	
	@27 v180 y8 h0 q77 b12^32r8r96 @10 v192 y7 h0 q7A b16.r32 @27 v180 y8 h0 q77 g12^32r8r96g48^64r12r192 @10 v192 y7 h0 q7A g16.r32>e16.r8r32
	e8..r32 @27 v180 y8 h0 q77 e12^32r96<b12^32r96b48^64r12r192 @10 v192 y7 h0 q7A b16.r32 @27 v180 y8 h0 q77 b48r12r48
	g12^32r8r96 @10 v192 y7 h0 > q7A c16.r32 @27 v180 y8 h0 < q77 g12^32r8r96g48^64r12r192 @10 v192 y7 h0 q7A g16.r32a16.r8r32
	a8..r32 @27 v180 y8 h0 q77 g12^32r96a12^32r96a48^64r12r192 @10 v192 y7 h0 q7A a16.r32 q77 g8
	
	^16.^48r4r96g12^32r8r96g12^32r8r96
	(trumpet_1)[
		g12^64r16..r24 g12^32r8r96g12^32r96g8..^48r96g12^32r96b8
		^16.^48r4r96b12^32r8r96b12^32r8r96
	]2
	
	>c12^64r16..r24
	c12^32r8r96c12^32r96c8..^48r96c12^32r96e8
	^16.^48r4r96e12^32r8r96e12^32r8r96 q79 c12^32r8r96
	c12^32r8r96c12^32r96< q78 a4...^48r96
	
	q7D b8 q73 b16r4r16 q7D g16. q73 g16r8.. q79 g32r32g32r32
	q7D e16. q73 e32 q79 e32r32 q72 e32r32 q7C e16 q73 e16 q79 e32r32 q72 e32r32 q7D a16. q73 a16r8.. q7D b8
	q73 b16r4.. q7D g16. q73 g16r3r96
	q7D f+16. q73 f+32 q79 f+32r32 q72 f+32r32 q7C f+16 q73 f+16 q79 f+32r32 q72 f+32r32 q7D d16. q73 d16r3r96
	
	q7D g8 q73 g16r4r16 q7D g16. q73 g16r8.. q79 g32r32g32r32
	q7A f+8 q78 f+16r16f+16 q72 f+16 q75 f+32r32 q72 f+32r32 q7A f+16. q72 f+16r16. q7A f+32.r64 q73 f+32.r64< q7A b8
	^2.r4
	
#7 / @24 v224 y16 h-23 o5

	(shaker_1)[ @24 v224 y16 h-23 q77 a8 q75 a8 q73 a8 q72 a8 ]16
	
	(shaker_2)[
		@24 v224 y16 h-23 q77 a8 q75 a8 q73 a8 q77 a8a8 q75 a8 q73 a8 q77 a8
		a8 q75 a8 q73 a8 q72 a8 q77 a8 q75 a8 q73 a8 q72 a8
	]7
	
	@24 v224 y16 h-23 q77 a8 q75 a8 q73 a8 q77 a8a8 q75 a8 q73 a8 q77 a8
	a8 q75 a8 q73 a8 q72 a8 q77 a8 q75 a8 q73 a8 q77 a8
	
	(shaker_3)[ @24 v224 y16 h-23 a8 q75 a8 q73 a8 q72 a8 q77 a8 q75 a8 q73 a8 q77 a8 ]4
	
	[ @24 v224 y16 h-23 q77 a8 q75 a8 @2 v255 y9 h-2 > q7F c32r16. @24 v224 y16 h-23 < q72 a8 q77 a8 @2 v255 y9 h-2 > q7F c32r16. @24 v224 y16 h-23 < q73 a8 @2 v255 y9 h-2 > q7F c32r16. ]2
	@24 v224 y16 h-23 < q77 a8 q75 a8 @2 v255 y9 h-2 > q7F c32r16. @24 v224 y16 h-23 < q72 a8 q77 a8 @2 v255 y9 h-2 > q7F c32r16. @24 v224 y16 h-23 < q73 a8 q78 a8
	@24 v224 y16 h-23 r8a8r8 q76 a8 q78 a8 q76 a8 q74 a8 q72 a8
	
	(shaker_1)3 @24 v224 y16 h-23 q77 a8 q75 a8 q73 a8 q77 a8
	@24 v224 y16 h-23 a8 q75 a8 q73 a8 q72 a8 q77 a8 q75 a8 q73 a8 q72 a8
	(shaker_1)7 @24 v224 y16 h-23 q77 a8 q75 a8 q73 a8 q77 a8
	(shaker_1)2
	
